X: 1
T: I Left My Heart in San Francisco
M: c
L: 1/4
K: Bb
"F7"DEG|"Bbmaj7"F4"Eb7"x2|"Dm7"zG"Dbdim7"A>B|"Cm7"G<C-C2|
"F7"zC=B,C|"Cm7"G4|zB"F+7"A>F|"Bbmaj7"D4-"G7"x2-|"Cm7"D"F7"DE=E|
"Bbmaj7"F/ED//E//F2-|F2"A7"zG|"Dm7"A/GF//G//"Eb7#11"A2-|"Dm7"AA^GA|
"Gm7"B4-"Gmmaj7"x2-|"Gm7"Bc"C7"A>C|"Cm7"F3G/F/|"F7"E>DEG|
"Bbmaj7"F4"Eb7"x2|"Dm7"zG"Dbdim7"A>B|"Cm7"G<C-C2|"F7"zC=B,C|
"F7"A4-|AABc|"Am7"d4|"D7"zd^c>d|
"G+7"e3d|=B2"G7"cd|"C7"cG3"Gm7"x2|"C7"zG^FG|
"Cm7"e3G|"F9"d2"F7b9"d2|"Bbmaj7"B4-|B|]
